docs/img/algolia-logo.svg

<?xml version="1.0" encoding="UTF-8" standalone="no"?>
<svg width="50px" height="16px" viewBox="0 0 50 16" version="1.1" xmlns="http://www.w3.org/2000/svg" xmlns:xlink="http://www.w3.org/1999/xlink" xmlns:sketch="http://www.bohemiancoding.com/sketch/ns">
    <!-- Generator: Sketch 3.3.3 (12072) - http://www.bohemiancoding.com/sketch -->
    <title>algolia-logo</title>
    <desc>Created with Sketch.</desc>
    <defs>
        <path d="M30.0459372,6.24119267 L29.3884842,8.6056847 L31.5058963,7.42787488 C31.1983838,6.8556057 30.6736543,6.42289183 30.0459372,6.24119267 Z M24.8500923,8.65453232 C24.8500923,11.1875143 26.8731393,13.2413793 29.3694906,13.2413793 C31.8658419,13.2413793 33.8888889,11.1875143 33.8888889,8.65453232 C33.8888889,6.12155031 31.8658419,4.06768532 29.3694906,4.06768532 C26.8731393,4.06768532 24.8500923,6.12155031 24.8500923,8.65453232 Z M29.3694906,5.37821303 C31.1494072,5.37821303 32.5976322,6.84805177 32.5976322,8.65453232 C32.5976322,10.4610129 31.1494072,11.9308516 29.3694906,11.9308516 C27.589574,11.9308516 26.141349,10.4610129 26.141349,8.65453232 C26.141349,6.84805177 27.589574,5.37821303 29.3694906,5.37821303 Z M30.9293599,3.5003515 C30.9305768,3.48257063 30.9344302,3.46561678 30.9344302,3.4474224 L30.9344302,3.03391378 C30.9342274,2.57740027 30.5711952,2.20710331 30.1231851,2.20689655 L28.7033035,2.20689655 C28.2554962,2.20710331 27.8922613,2.57719352 27.8922613,3.03391378 L27.8922613,3.440186 C28.3443276,3.31117131 28.81992,3.24066809 29.3119401,3.24066809 C29.8759582,3.24066809 30.4192896,3.332467 30.9293599,3.5003515 Z M25.9728555,4.30979461 C25.6560643,3.98684439 25.1421405,3.98705114 24.8253494,4.30979461 L24.6819618,4.45596991 C24.3651706,4.77871338 24.3653734,5.3026288 24.6819618,5.62557903 L24.8346787,5.78105827 C25.1597851,5.24928619 25.5737229,4.77995391 26.0547912,4.39353011 L25.9728555,4.30979461 Z" id="path-1"></path>
    </defs>
    <g id="Page-1" stroke="none" stroke-width="1" fill="none" fill-rule="evenodd" sketch:type="MSPage">
        <g id="Artboard-1" sketch:type="MSArtboardGroup" transform="translate(-432.000000, -160.000000)">
            <g id="algolia-logo" sketch:type="MSLayerGroup" transform="translate(432.000000, 160.000000)">
                <g id="Group" transform="translate(24.444444, 2.206897)"></g>
                <g id="Fill-4">
                    <use fill="#00B7E5" fill-rule="evenodd" sketch:type="MSShapeGroup" xlink:href="#path-1"></use>
                    <use fill="none" xlink:href="#path-1"></use>
                </g>
                <path d="M8.82620642,12.137931 C8.64110604,11.6600512 8.4672849,11.1904277 8.30413876,10.7286672 C8.14099262,10.2669067 7.97220685,9.7970866 7.79838571,9.31940336 L2.67559677,9.31940336 L1.64777606,12.137931 L0,12.137931 C0.434854971,10.9702609 0.842720332,9.89026432 1.22359608,8.89754813 C1.60427042,7.90502851 1.97648533,6.96283273 2.34124788,6.07135393 C2.70540619,5.17948198 3.06714752,4.32771183 3.42606904,3.51565033 C3.78499055,2.70358883 4.16022669,1.899587 4.55177743,1.10344828 L6.00377812,1.10344828 C6.39532887,1.899587 6.770565,2.70358883 7.12948652,3.51565033 C7.48840804,4.32771183 7.84994795,5.17948198 8.21450909,6.07135393 C8.5786674,6.96283273 8.95108372,7.90502851 9.33195947,8.89754813 C9.71263381,9.89026432 10.1204992,10.9702609 10.5555556,12.137931 L8.82620642,12.137931 L8.82620642,12.137931 Z M7.34157651,8.04577798 C6.99332998,7.12206048 6.64810468,6.22802617 6.3056992,5.36269218 C5.96289088,4.49755476 5.60658775,3.66701498 5.23699124,2.87067967 C4.85611549,3.66701498 4.49457558,4.49755476 4.15217009,5.36269218 C3.80956318,6.22802617 3.46937326,7.12206048 3.13240598,8.04577798 L7.34157651,8.04577798 L7.34157651,8.04577798 Z" id="Fill-5" fill="#FFFFFF" sketch:type="MSShapeGroup"></path>
                <path d="M14.2332379,12.6896552 C13.3017627,12.668129 12.6412657,12.4692116 12.2513459,12.092305 C11.8612254,11.715797 11.6666667,11.1292099 11.6666667,10.3325437 L11.6666667,0.258313591 L13.1772049,0 L13.1772049,10.0903747 C13.1772049,10.3383238 13.1990677,10.5426228 13.2421916,10.7040688 C13.2857166,10.8653154 13.3561188,10.9946715 13.4533982,11.0915391 C13.5508781,11.1882074 13.681052,11.2609578 13.8435186,11.3093916 C14.0061858,11.3578254 14.2063607,11.3982865 14.4444444,11.4305757 L14.2332379,12.6896552" id="Fill-6" fill="#FFFFFF" sketch:type="MSShapeGroup"></path>
                <path d="M21.8336514,12.1225144 C21.7048918,12.208743 21.4549349,12.3184163 21.0841787,12.4525277 C20.7134226,12.586639 20.2807743,12.653794 19.7864328,12.653794 C19.2813447,12.653794 18.8057102,12.5731285 18.3599272,12.4123936 C17.9139451,12.2512613 17.524283,12.0019135 17.1911398,11.6639528 C16.8579967,11.3257935 16.5947061,10.9049818 16.4012681,10.4007231 C16.2080291,9.89646438 16.1111111,9.29564547 16.1111111,8.59826637 C16.1111111,7.98671855 16.2022578,7.4260337 16.3851483,6.91641051 C16.5678397,6.40698601 16.8337174,5.96690205 17.1831794,5.59675468 C17.5322434,5.22660732 17.9593195,4.93692677 18.4646066,4.72771304 C18.9696946,4.51849931 19.539262,4.4137931 20.1733087,4.4137931 C20.8718348,4.4137931 21.4816022,4.46505345 22.0030091,4.5667794 C22.524217,4.66890272 22.9620396,4.76268134 23.3166759,4.84831393 L23.3166759,12.3158334 C23.3166759,13.6033025 22.9837318,14.5365189 22.3174454,15.11588 C21.650761,15.6952411 20.6407839,15.984723 19.286718,15.984723 C18.7601368,15.984723 18.2632082,15.9422047 17.795733,15.8563734 C17.3282579,15.7701448 16.922476,15.6686175 16.5787852,15.5505995 L16.8528224,14.2470371 C17.1535269,14.3646577 17.5216959,14.4695626 17.9569314,14.5607583 C18.3921668,14.6517554 18.8461092,14.6976512 19.3189576,14.6976512 C20.2109217,14.6976512 20.8529288,14.5206242 21.2453771,14.1663716 C21.6376263,13.8125162 21.8336514,13.2490498 21.8336514,12.4765684 L21.8336514,12.1225144 L21.8336514,12.1225144 Z M21.2131374,5.78987505 C20.9603943,5.75252255 20.6192907,5.73344893 20.1896276,5.73344893 C19.383636,5.73344893 18.762923,5.99670458 18.3276875,6.52222244 C17.892452,7.04793899 17.6749338,7.74511941 17.6749338,8.61416105 C17.6749338,9.09716065 17.736428,9.51022365 17.8602124,9.85354875 C17.9837977,10.1970725 18.1503693,10.4809913 18.3599272,10.706497 C18.569485,10.9316054 18.8112824,11.0981022 19.0853196,11.2051926 C19.3593567,11.3126804 19.6415533,11.3661263 19.9317103,11.3661263 C20.3291338,11.3661263 20.6945166,11.3098988 21.0276598,11.1972453 C21.360604,11.0843931 21.6240936,10.9532619 21.8175316,10.8030572 L21.8175316,5.91067462 C21.6668808,5.86775898 21.4656814,5.82762491 21.2131374,5.78987505 Z" id="Fill-7" fill="#FFFFFF" sketch:type="MSShapeGroup"></path>
                <path d="M37.5666017,12.6896552 C36.6350604,12.6679297 35.9746589,12.4692116 35.5847953,12.092305 C35.1949318,11.715797 35,11.1290106 35,10.3325437 L35,0.258313591 L36.5109218,0 L36.5109218,10.0901753 C36.5109218,10.3381245 36.5323803,10.5424234 36.5756985,10.7038694 C36.6190167,10.8653154 36.6894087,10.9944722 36.7870751,11.0913398 C36.8843405,11.1882074 37.0140944,11.2609578 37.1767381,11.3093916 C37.3391813,11.3578254 37.5393273,11.3980872 37.7777778,11.4303764 L37.5666017,12.6896552" id="Fill-8" fill="#FFFFFF" sketch:type="MSShapeGroup"></path>
                <path d="M40.5553269,2.56371814 C40.2469136,2.56371814 39.984225,2.47291169 39.7686328,2.291706 C39.5523548,2.1100931 39.4444444,1.86577082 39.4444444,1.55772114 C39.4444444,1.24987506 39.5523548,1.00514558 39.7686328,0.823939882 C39.984225,0.642326985 40.2469136,0.551724138 40.5553269,0.551724138 C40.8639689,0.551724138 41.1264289,0.642326985 41.3427069,0.823939882 C41.558299,1.00514558 41.6666667,1.24987506 41.6666667,1.55772114 C41.6666667,1.86577082 41.558299,2.1100931 41.3427069,2.291706 C41.1264289,2.47291169 40.8639689,2.56371814 40.5553269,2.56371814 L40.5553269,2.56371814 Z M39.7037037,4.11394303 L41.4259259,4.11394303 L41.4259259,12.6896552 L39.7037037,12.6896552 L39.7037037,4.11394303 Z" id="Fill-9" fill="#FFFFFF" sketch:type="MSShapeGroup"></path>
                <path d="M46.7078189,3.86206897 C47.3223594,3.86206897 47.8407763,3.94572158 48.2634761,4.11217539 C48.6857694,4.27884206 49.0259615,4.51447424 49.283849,4.81885909 C49.5417365,5.12366965 49.7256516,5.48573861 49.8353909,5.90527884 C49.9449271,6.32481907 50,6.78735632 50,7.29310345 L50,12.8967646 C49.8683128,12.9197531 49.6843977,12.9512559 49.4486613,12.9914857 C49.2125184,13.0317156 48.9465021,13.0689655 48.6502058,13.1034483 C48.3539095,13.137931 48.0328202,13.1694338 47.6873444,13.1981694 C47.3414622,13.2266922 46.998425,13.2413793 46.6584362,13.2413793 C46.1753798,13.2413793 45.7311385,13.1896552 45.3251029,13.0862069 C44.9190672,12.9827586 44.5679012,12.8188591 44.2716049,12.594934 C43.9753086,12.3707961 43.744856,12.0749255 43.5802469,11.7068966 C43.4156379,11.3390805 43.3333333,10.8965517 43.3333333,10.3793103 C43.3333333,9.88527033 43.4292537,9.45977011 43.6215008,9.10344828 C43.8131382,8.74733929 44.0738709,8.45998297 44.4032922,8.24137931 C44.7325103,8.02320136 45.1165981,7.86206897 45.5555556,7.75862069 C45.9943098,7.65517241 46.4552152,7.60344828 46.9382716,7.60344828 C47.0917035,7.60344828 47.2510288,7.61196254 47.4156379,7.62920392 C47.5802469,7.6464453 47.7367271,7.66985951 47.8846721,7.69838229 C48.0328202,7.72711792 48.1618656,7.75287356 48.2718082,7.77586207 C48.3813443,7.79906343 48.4581619,7.81630481 48.5020576,7.82758621 L48.5020576,7.37931034 C48.5020576,7.11494253 48.4746228,6.8535547 48.4197531,6.59472116 C48.3646802,6.33610047 48.2659147,6.10642827 48.1234568,5.90527884 C47.9807956,5.70412942 47.7859066,5.54320988 47.538993,5.42230736 C47.2920795,5.30183057 46.9709902,5.24137931 46.5761317,5.24137931 C46.0711274,5.24137931 45.6297312,5.27884206 45.2509272,5.3535547 C44.8725296,5.42826735 44.5898491,5.50595998 44.4032922,5.5862069 L44.2222222,4.25862069 C44.4197531,4.16687952 44.7491744,4.07769264 45.2098765,3.99148574 C45.6707819,3.90506599 46.170096,3.86206897 46.7078189,3.86206897 L46.7078189,3.86206897 Z M46.8395062,11.8965517 C47.2016461,11.8965517 47.5227354,11.8878246 47.8025707,11.8705832 C48.0824061,11.8533418 48.3155007,11.8220519 48.5020576,11.7758621 L48.5020576,9.10344828 C48.392115,9.04618987 48.2138902,8.99723287 47.9671798,8.95700298 C47.720063,8.91677309 47.4211248,8.89633887 47.0699588,8.89633887 C46.8395062,8.89633887 46.5952345,8.9137931 46.3375502,8.94827586 C46.0796627,8.98275862 45.8435198,9.05470413 45.6297312,9.16368668 C45.4155362,9.27309493 45.2371082,9.42230736 45.0946502,9.61217539 C44.951989,9.80161771 44.8806584,10.0517241 44.8806584,10.362069 C44.8806584,10.9367816 45.0560382,11.3361005 45.4074074,11.5602384 C45.7585734,11.7845892 46.2359396,11.8965517 46.8395062,11.8965517 L46.8395062,11.8965517 Z" id="Fill-10" fill="#FFFFFF" sketch:type="MSShapeGroup"></path>
            </g>
        </g>
    </g>
</svg>

<svg width="50" height="16" viewBox="0 0 50 16" xmlns="http://www.w3.org/2000/svg" xmlns:xlink="http://www.w3.org/1999/xlink"><title>algolia-logo</title><desc>Created with Sketch.</desc><defs><path d="M30.046 6.24l-.658 2.366 2.118-1.178c-.308-.572-.832-1.005-1.46-1.187zM24.85 8.656c0 2.533 2.023 4.586 4.52 4.586 2.496 0 4.52-2.052 4.52-4.585s-2.024-4.587-4.52-4.587c-2.497 0-4.52 2.054-4.52 4.587zm4.52-3.277c1.78 0 3.228 1.47 3.228 3.277 0 1.806-1.45 3.276-3.23 3.276-1.778 0-3.227-1.47-3.227-3.275 0-1.807 1.45-3.277 3.23-3.277zM30.93 3.5c0-.017.004-.034.004-.053v-.413c0-.457-.363-.827-.81-.827h-1.42c-.45 0-.812.37-.812.827v.406c.452-.13.928-.2 1.42-.2.564 0 1.107.092 1.617.26zm-4.957.81c-.317-.323-.83-.323-1.148 0l-.143.146c-.317.323-.317.847 0 1.17l.153.155c.325-.53.74-1 1.22-1.386l-.082-.084z" id="a"/></defs><g fill="none" fill-rule="evenodd"><g><g><g transform="translate(-432 -160) translate(432 160)"><use fill="#00B7E5" xlink:href="#a"/><use xlink:href="#a"/></g><path d="M8.826 12.138c-.185-.478-.36-.948-.522-1.41-.163-.46-.332-.93-.506-1.41H2.676l-1.028 2.82H0c.435-1.168.843-2.248 1.224-3.24.38-.993.752-1.935 1.117-2.827.365-.89.727-1.742 1.086-2.554.36-.812.734-1.616 1.126-2.413h1.452c.39.797.767 1.6 1.125 2.413.358.812.72 1.663 1.085 2.555.364.893.736 1.835 1.117 2.828.38.992.788 2.072 1.224 3.24h-1.73zM7.342 8.046c-.35-.924-.694-1.818-1.036-2.683-.343-.865-.7-1.696-1.07-2.492-.38.797-.74 1.628-1.084 2.493-.342.865-.683 1.76-1.02 2.683h4.21z" fill="#fff"/><path d="M14.233 12.69c-.93-.022-1.592-.22-1.982-.598-.39-.376-.583-.963-.583-1.76V.26L13.177 0v10.09c0 .248.022.453.065.614.044.16.114.29.21.388.1.096.23.17.392.217.162.048.362.088.6.12l-.21 1.26" fill="#fff"/><path d="M21.834 12.123c-.13.086-.38.195-.75.33-.37.134-.803.2-1.298.2-.505 0-.98-.08-1.426-.24-.446-.162-.836-.41-1.17-.75-.332-.337-.595-.758-.79-1.262-.192-.504-.29-1.104-.29-1.802 0-.61.092-1.172.275-1.682.183-.51.45-.95.798-1.32.35-.37.776-.66 1.282-.868.505-.21 1.074-.314 1.708-.314.7 0 1.31.05 1.83.153.52.102.96.196 1.314.28v7.47c0 1.286-.333 2.22-1 2.8-.666.578-1.676.868-3.03.868-.527 0-1.024-.043-1.49-.13-.47-.085-.875-.186-1.218-.304l.273-1.303c.3.118.67.223 1.104.314.435.092.89.138 1.362.138.89 0 1.533-.177 1.925-.532.393-.353.59-.917.59-1.69v-.353zm-.62-6.333c-.254-.037-.595-.057-1.024-.057-.806 0-1.427.264-1.862.79-.436.525-.653 1.222-.653 2.09 0 .484.06.897.185 1.24.124.344.29.628.5.853.21.226.45.392.725.5.274.107.557.16.847.16.397 0 .763-.056 1.096-.17.333-.112.596-.243.79-.393V5.91c-.15-.042-.352-.082-.605-.12z" fill="#fff"/><path d="M37.567 12.69c-.932-.022-1.592-.22-1.982-.598-.39-.376-.585-.963-.585-1.76V.26L36.51 0v10.09c0 .248.022.452.066.614.043.16.113.29.21.387.098.098.228.17.39.22.163.048.363.088.602.12l-.21 1.26" fill="#fff"/><path d="M40.555 2.564c-.308 0-.57-.09-.786-.272-.218-.182-.326-.426-.326-.734s.108-.553.325-.734c.214-.182.477-.272.785-.272.31 0 .57.09.788.272.215.18.324.426.324.734s-.11.552-.324.734c-.217.18-.48.272-.788.272zm-.85 1.55h1.72v8.576h-1.72V4.114z" fill="#fff"/><path d="M46.708 3.862c.614 0 1.133.084 1.555.25.423.167.763.402 1.02.707.26.304.443.666.552 1.085.11.42.165.882.165 1.388v5.604l-.55.094c-.237.042-.503.08-.8.113-.296.035-.617.066-.963.095-.346.03-.69.043-1.03.043-.482 0-.926-.05-1.332-.154-.406-.103-.757-.267-1.053-.49-.297-.225-.527-.52-.692-.89-.164-.367-.247-.81-.247-1.327 0-.495.096-.92.29-1.277.19-.356.45-.643.78-.862.33-.217.714-.378 1.153-.48.438-.105.9-.157 1.382-.157.154 0 .313.01.478.026.164.016.32.04.47.068l.386.078c.11.023.186.04.23.052v-.45c0-.263-.027-.524-.082-.783-.055-.26-.154-.49-.297-.69-.142-.2-.337-.362-.584-.483-.248-.12-.57-.18-.964-.18-.505 0-.946.037-1.325.112-.377.074-.66.152-.847.232l-.18-1.327c.197-.093.526-.182.987-.27.46-.085.96-.128 1.498-.128zm.132 8.035c.362 0 .683-.01.963-.026.28-.017.513-.048.7-.094V9.103c-.11-.057-.29-.106-.536-.146-.247-.04-.546-.06-.897-.06-.23 0-.475.017-.732.05-.258.036-.494.108-.708.217-.214.11-.393.258-.535.448-.143.19-.214.44-.214.75 0 .575.176.974.527 1.198.352.225.83.337 1.433.337z" fill="#fff"/></g></g></g></svg>
